X: 35352
T: Rosie Clayton's
R: hornpipe
M: 4/4
K: Gmajor
|:(3GAB d2 BA G2|(3GAB B2 AG B2|
(3BAG E2 DE D2|1 DEGA- AB G2:|2 DEGG BG||
g2 g>g eded|1 B>ADE GABd|2 B>ADE G4||

